Origami/24x24/apps/pia-manager.svg

<svg width="24" height="24" version="1.1" viewBox="0 0 24 24" xmlns="http://www.w3.org/2000/svg">
 <path d="m12 2.5a7 6.5 0 0 0 -7 6.5 7 6.5 0 0 0 0.0234375 0.5h-0.0234375v12c0 0.554 0.4795566 1 1.0761719 1h3.7695312l1.6152349-2h1.078124l1.615235 2h3.769531c0.596615 0 1.076172-0.446 1.076172-1v-12h-0.02734a7 6.5 0 0 0 0.02734 -0.5 7 6.5 0 0 0 -7 -6.5z" style="opacity:.2"/>
 <path d="m4 9.5c-0.554 0-1 0.446-1 1v7c0 0.554 0.446 1 1 1h2c0.554 0 1-0.446 1-1v-7c0-0.554-0.446-1-1-1h-2zm14 0c-0.554 0-1 0.446-1 1v7c0 0.554 0.446 1 1 1h2c0.554 0 1-0.446 1-1v-7c0-0.554-0.446-1-1-1h-2z" style="opacity:.2"/>
 <rect x="3" y="9" width="4" height="9" rx="1" ry="1" style="fill:#358334"/>
 <rect x="17" y="9" width="4" height="9" rx="1" ry="1" style="fill:#358334"/>
 <path d="m4 9c-0.554 0-1 0.446-1 1v0.5c0-0.554 0.446-1 1-1h2c0.554 0 1 0.446 1 1v-0.5c0-0.554-0.446-1-1-1h-2zm14 0c-0.554 0-1 0.446-1 1v0.5c0-0.554 0.446-1 1-1h2c0.554 0 1 0.446 1 1v-0.5c0-0.554-0.446-1-1-1h-2z" style="fill:#ffffff;opacity:.1"/>
 <path d="m6.0769229 9h11.846154 1.076923v12c0 0.554-0.480308 1-1.076923 1h-3.769231l-1.615384-2h-1.076924l-1.6153842 2h-3.7692309c-0.5966153 0-1.0769231-0.446-1.0769231-1v-12h1.0769231z" style="fill:#50b24e"/>
 <ellipse cx="12" cy="8.5" rx="7" ry="6.5" style="fill:#50b24e"/>
 <path d="M 12,5 A 4,4 0 0 0 8,9 4,4 0 0 0 8.036135,9.5 l 7.928711,0 A 4,4 0 0 0 16,9 4,4 0 0 0 12,5 Z" style="opacity:.2"/>
 <path d="M 12,5 A 4,3.5555556 0 0 0 8,8.5555556 4,3.5555556 0 0 0 8.036135,9 l 7.928711,0 A 4,3.5555556 0 0 0 16,8.5555556 4,3.5555556 0 0 0 12,5 Z" style="fill:#ffffff"/>
 <circle cx="10" cy="7" r="1" style="fill:#3f3f3f"/>
 <circle cx="14" cy="7" r="1" style="fill:#3f3f3f"/>
 <path class="ColorScheme-Text" d="m12 11.5c-1.108 0-2 0.9108-2 2.03125v0.96875h-0.5c-0.277 0-0.5 0.223-0.5 0.5v3c0 0.277 0.223 0.5 0.5 0.5h5c0.277 0 0.5-0.223 0.5-0.5v-3c0-0.277-0.223-0.5-0.5-0.5h-0.5v-0.96875c0-1.12-0.892-2.03125-2-2.03125zm0 1c0.554 0 1 0.446 1 1v1h-2v-1c0-0.554 0.446-1 1-1z" style="opacity:.2"/>
 <path class="ColorScheme-Text" d="m12 11c-1.108 0-2 0.9108-2 2.03125v0.96875h-0.5c-0.277 0-0.5 0.223-0.5 0.5v3c0 0.277 0.223 0.5 0.5 0.5h5c0.277 0 0.5-0.223 0.5-0.5v-3c0-0.277-0.223-0.5-0.5-0.5h-0.5v-0.96875c0-1.12-0.892-2.03125-2-2.03125zm0 1c0.554 0 1 0.446 1 1v1h-2v-1c0-0.554 0.446-1 1-1z" style="fill:#ffffff"/>
 <path d="M 12 2 A 7 6.5 0 0 0 5 8.5 A 7 6.5 0 0 0 5.0097656 8.7246094 A 7 6.5 0 0 1 12 2.5 A 7 6.5 0 0 1 18.986328 8.7480469 A 7 6.5 0 0 0 19 8.5 A 7 6.5 0 0 0 12 2 z M 5 9 L 5 9.5 L 5.0234375 9.5 A 7 6.5 0 0 1 5 9 z M 19 9 A 7 6.5 0 0 1 18.972656 9.5 L 19 9.5 L 19 9 z" style="fill:#ffffff;opacity:.2"/>
</svg>

<svg xmlns="http://www.w3.org/2000/svg" width="24" height="24" version="1.1" viewBox="0 0 24 24">
 <path style="opacity:0.2" d="M 12,2.5 A 7,6.5 0 0 0 5,9 7,6.5 0 0 0 5.0234375,9.5 L 5,9.5 l 0,12 c 0,0.554 0.4795566,1 1.0761719,1 l 3.7695312,0 1.6152349,-2 1.078124,0 1.615235,2 3.769531,0 C 18.520443,22.5 19,22.054 19,21.5 l 0,-12 -0.02734,0 A 7,6.5 0 0 0 19,9 7,6.5 0 0 0 12,2.5 Z"/>
 <path style="opacity:0.2" d="m 4,9.5 c -0.554,0 -1,0.446 -1,1 l 0,7 c 0,0.554 0.446,1 1,1 l 2,0 c 0.554,0 1,-0.446 1,-1 l 0,-7 C 7,9.946 6.554,9.5 6,9.5 l -2,0 z m 14,0 c -0.554,0 -1,0.446 -1,1 l 0,7 c 0,0.554 0.446,1 1,1 l 2,0 c 0.554,0 1,-0.446 1,-1 l 0,-7 c 0,-0.554 -0.446,-1 -1,-1 l -2,0 z"/>
 <rect style="fill:#358334" width="4" height="9" x="3" y="9" rx="1" ry="1"/>
 <rect style="fill:#358334" width="4" height="9" x="17" y="9" rx="1" ry="1"/>
 <path style="opacity:0.1;fill:#ffffff" d="M 4,9 C 3.446,9 3,9.446 3,10 l 0,0.5 c 0,-0.554 0.446,-1 1,-1 l 2,0 c 0.554,0 1,0.446 1,1 L 7,10 C 7,9.446 6.554,9 6,9 L 4,9 Z m 14,0 c -0.554,0 -1,0.446 -1,1 l 0,0.5 c 0,-0.554 0.446,-1 1,-1 l 2,0 c 0.554,0 1,0.446 1,1 L 21,10 C 21,9.446 20.554,9 20,9 l -2,0 z"/>
 <path style="fill:#50b24e" d="M 6.0769229,9 17.923077,9 C 18.519692,9 19,9 19,9 l 0,12 c 0,0.554 -0.480308,1 -1.076923,1 l -3.769231,0 -1.615384,-2 -1.076924,0 -1.6153842,2 -3.7692309,0 C 5.4803076,22 4.9999998,21.554 4.9999998,21 l 0,-12 c 0,0 0.4803078,0 1.0769231,0 z"/>
 <ellipse style="fill:#50b24e" cx="12" cy="8.5" rx="7" ry="6.5"/>
 <path style="opacity:0.2" d="M 12,5 A 4,4 0 0 0 8,9 4,4 0 0 0 8.036135,9.5 l 7.928711,0 A 4,4 0 0 0 16,9 4,4 0 0 0 12,5 Z"/>
 <path style="fill:#ffffff" d="M 12,5 A 4,3.5555556 0 0 0 8,8.5555556 4,3.5555556 0 0 0 8.036135,9 l 7.928711,0 A 4,3.5555556 0 0 0 16,8.5555556 4,3.5555556 0 0 0 12,5 Z"/>
 <circle style="fill:#3f3f3f" cx="10" cy="7" r="1"/>
 <circle style="fill:#3f3f3f" cx="14" cy="7" r="1"/>
 <path style="opacity:0.2" class="ColorScheme-Text" d="m 12,11.5 c -1.108,0 -2,0.9108 -2,2.03125 L 10,14.5 9.5,14.5 C 9.223,14.5 9,14.723 9,15 l 0,3 c 0,0.277 0.223,0.5 0.5,0.5 l 5,0 c 0.277,0 0.5,-0.223 0.5,-0.5 l 0,-3 c 0,-0.277 -0.223,-0.5 -0.5,-0.5 l -0.5,0 0,-0.96875 C 14,12.41125 13.108,11.5 12,11.5 Z m 0,1 c 0.554,0 1,0.446 1,1 l 0,1 -2,0 0,-1 c 0,-0.554 0.446,-1 1,-1 z"/>
 <path style="fill:#ffffff" class="ColorScheme-Text" d="m 12,11 c -1.108,0 -2,0.9108 -2,2.03125 L 10,14 9.5,14 C 9.223,14 9,14.223 9,14.5 l 0,3 C 9,17.777 9.223,18 9.5,18 l 5,0 c 0.277,0 0.5,-0.223 0.5,-0.5 l 0,-3 C 15,14.223 14.777,14 14.5,14 L 14,14 14,13.03125 C 14,11.91125 13.108,11 12,11 Z m 0,1 c 0.554,0 1,0.446 1,1 l 0,1 -2,0 0,-1 c 0,-0.554 0.446,-1 1,-1 z"/>
 <path style="opacity:0.2;fill:#ffffff" d="M 12 2 A 7 6.5 0 0 0 5 8.5 A 7 6.5 0 0 0 5.0097656 8.7246094 A 7 6.5 0 0 1 12 2.5 A 7 6.5 0 0 1 18.986328 8.7480469 A 7 6.5 0 0 0 19 8.5 A 7 6.5 0 0 0 12 2 z M 5 9 L 5 9.5 L 5.0234375 9.5 A 7 6.5 0 0 1 5 9 z M 19 9 A 7 6.5 0 0 1 18.972656 9.5 L 19 9.5 L 19 9 z"/>
</svg>
